.local/share/icons/Gruvbox-Plus-Dark/actions/22/format-text-symbol.svg

<?xml version="1.0" standalone="no"?><!-- Generator: Gravit.io --><svg xmlns="http://www.w3.org/2000/svg" xmlns:xlink="http://www.w3.org/1999/xlink" style="isolation:isolate" viewBox="0 0 22 22" width="22" height="22"><path d=" M 14.444735 18.030094 C 12.739635 18.014803 11.731538 16.834006 11.749155 14.869408 C 11.762333 13.399879 11.972675 11.70643 12.236556 9.563738 C 12.338887 8.734524 12.450047 7.841024 12.560636 6.873254 L 10.626567 6.85591 L 10.521168 7.843119 C 9.731301 15.223469 9.435876 17.985177 6.688244 17.960537 C 5.858178 17.953094 4.713986 17.225751 4.726054 15.879989 C 4.735029 14.879125 5.19388 14.551517 5.678899 14.204339 C 6.467462 13.640798 7.774675 12.70645 8.359564 6.83558 L 7.695347 6.829624 C 6.755954 6.8212 6.083051 7.27768 5.576178 8.267478 C 5.351825 8.624832 4.993824 9.024723 4.259388 8.797401 C 4.147378 8.762962 4.05545 8.682251 4.006809 8.575638 C 3.957632 8.469743 3.955725 8.347949 4.001561 8.240567 C 4.421311 7.25824 4.844975 6.391473 5.294661 5.475429 L 5.314429 5.433522 C 5.705412 4.668372 6.465832 3.930465 11.021703 3.971319 L 17.622621 4.030513 C 17.85047 4.032556 18.033522 4.218921 18.031478 4.44677 L 18.01298 6.509557 C 18.010937 6.737406 17.824573 6.920458 17.596723 6.918415 L 15.085899 6.895899 C 14.64052 11.472485 14.4818 14.218915 14.946282 14.735517 C 15.0149 14.813287 15.122583 14.859638 15.462531 14.862686 C 16.012057 14.867614 16.501541 14.02248 16.506136 13.510083 C 16.50819 13.281114 16.693424 13.099172 16.922393 13.101226 L 17.541229 13.106775 C 17.770199 13.108828 17.95214 13.294063 17.950087 13.523032 C 17.92308 16.534701 16.744329 18.050715 14.444735 18.030094 Z " id="format-text-symbol" fill="#ebdbb2"/></svg>

<svg width="22" height="22" version="1.1" xmlns="http://www.w3.org/2000/svg">
  <defs>
    <style id="current-color-scheme" type="text/css">.ColorScheme-Text { color:#ebdbb2; } .ColorScheme-Highlight { color:#458588; }</style>
  </defs>
  <path class="ColorScheme-Text" d="m11.75 14.85c0.01312-1.463 0.2225-3.149 0.4852-5.282 0.1019-0.8255 0.2125-1.715 0.3226-2.678l-1.925-0.01727-0.1049 0.9827c-0.7863 7.347-1.08 10.1-3.816 10.07-0.8263-0.0074-1.965-0.7315-1.953-2.071 0.00893-0.9963 0.4657-1.322 0.9485-1.668 0.785-0.561 2.086-1.491 2.669-7.335l-0.6612-0.00593c-0.9351-0.00839-1.605 0.446-2.11 1.431-0.2233 0.3557-0.5797 0.7538-1.311 0.5275-0.1115-0.03428-0.203-0.1146-0.2514-0.2208-0.04895-0.1054-0.05085-0.2267-0.00522-0.3336 0.4178-0.9779 0.8396-1.841 1.287-2.753l0.01968-0.04172c0.3892-0.7617 1.146-1.496 5.681-1.456l6.571 0.05893c0.2268 0.00203 0.409 0.1876 0.407 0.4144l-0.01841 2.053c-2e-3 0.2268-0.1876 0.409-0.4144 0.407l-2.499-0.02241c-0.4434 4.556-0.6014 7.29-0.139 7.804 0.06831 0.07742 0.1755 0.1236 0.5139 0.1266 0.547 0.0049 1.034-0.8364 1.039-1.346 2e-3 -0.2279 0.1864-0.409 0.4144-0.407l0.616 0.0055c0.2279 2e-3 0.409 0.1864 0.407 0.4144-0.02689 2.998-1.2 4.507-3.194 4.489-1.993-0.01786-2.997-1.193-2.979-3.149z" fill="currentColor"/>
</svg>
